X:57
T:Fast Floyd
C:David Peters (with Kelly Lancaster)
N:TablEdited by Steve Keating
L:1/8
Q:1/4=245
M:4/4
K:C
z^c A^F ^GE ^C2 |: ^c3^F3 B,2 | zD G_B fe dA | AB zA Bd z2 | B2 Ae A^c A^F |
|1 ^GE ^CB, DE =GE | B2 Ae d2 e2 | B2 A2 B2 zd | ^dc AG EG ^GA | cA ^cd z2 zd | ^dc AG EG ^GA | z^c A^F ^GE ^C2 :|
|2 ^GE ^CB, D^F =GE | B2 Ae de z2 | B2 AB z3d | ^dc AG EG ^GA | cA ^cd z2 zd | ^dc AG EG ^GA |] 
z2 zA eA zd | ^dc AG EG ^GA | G2 zA BG A^F | zD E2 z^F GE | ^FD z2 E2 Ee | (3E^FG A_B =Bd e^f | 
ga be g2 za | bg a2 (3^fgf e2 | z^f ge fd z2 | ed z_B AG E=B | z^c A^F ^GE ^C2 | 
^c3^F3 B,2 | zD G_B fe dA | AB zA Bd z2 | B2 Ae A^c A^F | ^GE ^CB, D^F E=G | B2 Ae de z2 | 
B2 A2 B2 zd | ^dc AG EG ^GA | cA ^cd z2 zd | ^dc AG EG ^GA | z4 Ae Ad | ^dc AG EG ^GA | 
cA ^cd d3e | ag e^d =dc AG/A/ | AA EA cd ^de | "Am7"a4 ac' za | "D9"eg de cd Ac | 
"F9"Ac cA cd zd | "E9"eA cd cA cd | "Am7"ec dc (3"Bm7"^d=dc dc | (3"Em7(?)"^d=dc dc (3"Bm7"[g^d]=dc dc | 
(3"Am7"[g^d]=dc dc (3^d=dc dA | "E9"cA Gc AG ED | (3^D=DC D^D =DC A,G, | A,2 AA, A,B, BB, | 
B,C cC CD d2 | [d2D2] z[^d^D] z[eE] z=D | EC EG ^FD FA | GE GB A^F Ac | BG Bd cA ce | 
dB dB de ee | eg ag e^d ze | dA e^d ze dA | e^d ze ed =dA | ^d=d cA AA AA | AA AA [ec]z AA | 
AA [^fd]z AA AA | [g^d]z AA AA [^f=d]z | AA AA [ec]z AA | AA ag ee za | za ze ae ae | 
aa ge dA ee | ee zA AA (3AcA | Gc AG ED (3^D=DC | DD DC (3A,B,C DB, | CE GE AB cd | 
eg ba ge dA | d^c =c^G BG AB | cE GB AG ED | A,B, CD ^DE GE | ^FG AB d^c =c^G | 
B^G AB cd eg | bg ^dc a^f =dB | ge c^f zd ec | Ad BG cA GA | ^DE AD =D^D =D^D | 
D^D =D^D =D^D =DC | DC A,B, CD EF | GA Bd ze Ae | (3A,B,C D2 (3D^DE G2 | (3ABc d2 (3e^fg a2 | 
ae ga ze dg | e^d ze AA ed | e^d ed ee ee | ^de (3dee (3dee (3dee | ^d/z/e d/z/e ee de | 
^de de d/z/e ga | za aa ag e^d | dc AG cA G2 | AG ED (3^D=DC D^D | D^D =D^D =DC DE | 
FA c6 | cA EB z4 | z2 dB G^f ze | ge ga ze ee | a^f dB ge cf | zB ed Ad BG | cA ^FB AF AG | 
^FE DC B,A, A,G, | A,B, DB, CE GB | AB cd eg ba | ge dc BG _BG | AG ^FE DD DD | 
[e^d]e B=d c^G BA | EG FE DC B,G, | (3A,B,C (3D^DE (3=D^DE (3ABc | (3ABc (3deg (3age (3^d=dc | 
A8 | b2 bg z2 ge | ze c2 cB zB | G2 GE zE EE | E^F GB FG BF | GB dB cd eg | ag ag ed ge | 
dg ee ee eg | ag ag eg ag | ag e^d ze dA | e^d ze dA ed | ze ee ee ee | (3age (3bge (3c'ge (3bge | 
(3age (3dcA (3dcA (3dcA | (3BAB (3cBA (3GBA (3GEA | (3EGE (3DCD (3EGE (3DCB, | 
A,2 A,D ^DE AA | ^DE AD ED =D^D | DC DE ^FG AB | cd de ce ee | ^d/e/e gd eg de | 
g/g/^d eg de gd | eg ^de gd eg | ^de gd eg de | g^d eg (3age ga | c'a aa a/g/e g^d | 
eg (3^d=dc Ac ^d/e/z | ^dc Ac d/e/z (3d=dc | dz dz dz d2 | dz dc dz dc | dz dc d2 dc | 
dc AG cA GA | G/A/z A6 | z8 | z8 | 


